public/img/routes/portfolio.svg

<?xml version="1.0" encoding="UTF-8"?>
<svg width="500px" height="500px" viewBox="0 0 500 500" version="1.1" xmlns="http://www.w3.org/2000/svg" xmlns:xlink="http://www.w3.org/1999/xlink">
    <!-- Generator: Sketch 46.2 (44496) - http://www.bohemiancoding.com/sketch -->
    <title>web/routes/portfolio</title>
    <desc>Created with Sketch.</desc>
    <defs></defs>
    <g id="Web" stroke="none" stroke-width="1" fill="none" fill-rule="evenodd">
        <g id="portfolio" fill="#000000">
            <path d="M61,0 L243.515337,0 C270.611587,0 296.045893,2.68402224 319.819018,8.05214724 C343.592143,13.4202722 364.297458,22.367013 381.935583,34.892638 C399.573708,47.418263 413.505061,64.0336388 423.730061,84.7392638 C433.955061,105.444889 439.067485,130.879195 439.067485,161.042945 C439.067485,190.184195 433.827251,215.49069 423.346626,236.96319 C412.866001,258.43569 398.679026,276.073551 380.785276,289.877301 C362.891526,303.681051 342.186212,313.905897 318.668712,320.552147 C295.151212,327.198397 270.100337,330.521472 243.515337,330.521472 L173.730061,330.521472 L173.730061,500 L61,500 L61,0 Z M236.613497,240.797546 C297.452247,240.797546 327.871166,214.212945 327.871166,161.042945 C327.871166,134.969195 320.202531,116.564471 304.865031,105.828221 C289.527531,95.0919709 266.777247,89.7239264 236.613497,89.7239264 L173.730061,89.7239264 L173.730061,240.797546 L236.613497,240.797546 Z" id="P"></path>
        </g>
    </g>
</svg>

<svg width="500" height="500" viewBox="0 0 500 500" xmlns="http://www.w3.org/2000/svg"><title>web/routes/portfolio</title><path d="M61 0h182.515c27.097 0 52.53 2.684 76.304 8.052 23.773 5.368 44.478 14.315 62.117 26.84 17.638 12.526 31.57 29.142 41.794 49.847 10.225 20.706 15.337 46.14 15.337 76.304 0 29.141-5.24 54.448-15.72 75.92-10.481 21.473-24.668 39.11-42.562 52.914-17.893 13.804-38.599 24.029-62.116 30.675-23.518 6.646-48.569 9.97-75.154 9.97H173.73V500H61V0zm175.613 240.798c60.84 0 91.258-26.585 91.258-79.755 0-26.074-7.668-44.479-23.006-55.215-15.337-10.736-38.088-16.104-68.252-16.104H173.73v151.074h62.883z" fill-rule="evenodd"/></svg>
